cutejava-front/src/assets/icons/svg/service-center.svg

<?xml version="1.0" standalone="no"?><!DOCTYPE svg PUBLIC "-//W3C//DTD SVG 1.1//EN" "http://www.w3.org/Graphics/SVG/1.1/DTD/svg11.dtd"><svg t="1608282915714" class="icon" viewBox="0 0 1024 1024" version="1.1" xmlns="http://www.w3.org/2000/svg" p-id="2656" xmlns:xlink="http://www.w3.org/1999/xlink" width="200" height="200"><defs><style type="text/css"></style></defs><path d="M512 0a512 512 0 1 0 512 512A512.433898 512.433898 0 0 0 512 0z m0 938.088136A554.522034 554.522034 0 0 1 390.508475 745.437288a775.376271 775.376271 0 0 1 121.491525-9.545763 725.477966 725.477966 0 0 1 117.152542 9.545763 544.108475 544.108475 0 0 1-117.152542 192.650848z m0-271.620339a833.952542 833.952542 0 0 0-143.620339 12.58305 661.261017 661.261017 0 0 1-20.39322-133.206779h321.518644a681.220339 681.220339 0 0 1-19.525424 130.169491 790.562712 790.562712 0 0 0-137.979661-9.545762zM71.159322 545.844068h208.271186a728.515254 728.515254 0 0 0 22.562712 149.261017 449.952542 449.952542 0 0 0-151.864406 71.59322 439.538983 439.538983 0 0 1-78.969492-220.854237zM507.661017 85.911864a554.088136 554.088136 0 0 1 120.18983 190.481356 682.955932 682.955932 0 0 1-115.850847 9.979661 722.874576 722.874576 0 0 1-121.925424-10.413559 542.80678 542.80678 0 0 1 117.586441-190.047458z m4.338983 269.884746a749.342373 749.342373 0 0 0 137.111864-13.016949 661.261017 661.261017 0 0 1 21.261017 134.508475H348.854237a680.786441 680.786441 0 0 1 20.393221-134.508475 787.525424 787.525424 0 0 0 142.752542 13.016949z m-232.569492 119.755932h-208.271186a439.538983 439.538983 0 0 1 81.138983-221.288135 462.101695 462.101695 0 0 0 149.694915 72.461017 748.474576 748.474576 0 0 0-22.562712 148.827118z m460.366102 72.027119l213.044068 3.037288a439.538983 439.538983 0 0 1-79.837288 216.949153A466.440678 466.440678 0 0 0 718.101695 694.237288a748.040678 748.040678 0 0 0 21.694915-146.657627z m0-69.423729a728.515254 728.515254 0 0 0-23.430508-151.430508 477.288136 477.288136 0 0 0 153.6-75.064407 439.538983 439.538983 0 0 1 83.308474 228.664407z m86.779661-278.562712a417.844068 417.844068 0 0 1-130.169491 61.61356 650.847458 650.847458 0 0 0-103.701695-183.105085 441.708475 441.708475 0 0 1 232.135593 121.491525zM422.183051 78.101695A642.60339 642.60339 0 0 0 322.386441 260.338983a397.450847 397.450847 0 0 1-125.39661-58.576271A442.142373 442.142373 0 0 1 422.183051 78.101695zM193.952542 819.2a384 384 0 0 1 130.169492-58.576271A650.847458 650.847458 0 0 0 425.220339 945.898305a442.142373 442.142373 0 0 1-231.267797-126.698305z m402.223729 126.698305a643.471186 643.471186 0 0 0 101.532204-185.708474 401.789831 401.789831 0 0 1 130.169491 60.311864 441.708475 441.708475 0 0 1-231.701695 125.39661z" p-id="2657"></path></svg>

<svg class="icon" viewBox="0 0 1024 1024" xmlns="http://www.w3.org/2000/svg" width="200" height="200"><defs><style/></defs><path d="M512 0a512 512 0 1 0 512 512A512.434 512.434 0 0 0 512 0zm0 938.088a554.522 554.522 0 0 1-121.492-192.65A775.376 775.376 0 0 1 512 735.891a725.478 725.478 0 0 1 117.153 9.545A544.108 544.108 0 0 1 512 938.088zm0-271.62a833.953 833.953 0 0 0-143.62 12.583 661.261 661.261 0 0 1-20.394-133.207h321.52a681.22 681.22 0 0 1-19.526 130.17A790.563 790.563 0 0 0 512 666.468zM71.16 545.844h208.27a728.515 728.515 0 0 0 22.563 149.261 449.953 449.953 0 0 0-151.864 71.593 439.539 439.539 0 0 1-78.97-220.854zM507.66 85.912a554.088 554.088 0 0 1 120.19 190.481A682.956 682.956 0 0 1 512 286.373a722.875 722.875 0 0 1-121.925-10.414A542.807 542.807 0 0 1 507.66 85.912zM512 355.797a749.342 749.342 0 0 0 137.112-13.017 661.261 661.261 0 0 1 21.26 134.508H348.855a680.786 680.786 0 0 1 20.393-134.508A787.525 787.525 0 0 0 512 355.797zM279.43 475.553H71.16a439.539 439.539 0 0 1 81.138-221.289 462.102 462.102 0 0 0 149.695 72.461 748.475 748.475 0 0 0-22.562 148.828zm460.367 72.027l213.044 3.037a439.539 439.539 0 0 1-79.838 216.95 466.44 466.44 0 0 0-154.901-73.33 748.04 748.04 0 0 0 21.695-146.657zm0-69.424a728.515 728.515 0 0 0-23.43-151.43 477.288 477.288 0 0 0 153.6-75.065 439.539 439.539 0 0 1 83.308 228.664zm86.78-278.563a417.844 417.844 0 0 1-130.17 61.614A650.847 650.847 0 0 0 592.705 78.102a441.708 441.708 0 0 1 232.136 121.491zM422.182 78.102a642.603 642.603 0 0 0-99.797 182.237 397.45 397.45 0 0 1-125.396-58.576A442.142 442.142 0 0 1 422.183 78.102zM193.953 819.2a384 384 0 0 1 130.169-58.576A650.847 650.847 0 0 0 425.22 945.898 442.142 442.142 0 0 1 193.953 819.2zm402.223 126.698A643.471 643.471 0 0 0 697.708 760.19a401.79 401.79 0 0 1 130.17 60.312 441.708 441.708 0 0 1-231.702 125.396z"/></svg>
